;FLAVOR:Marlin
;TIME:1238
;Filament used: 0.499859m
;Layer height: 0.2
;MINX:145.12
;MINY:143.638
;MINZ:0.2
;MAXX:154.88
;MAXY:157.97
;MAXZ:22.8
;Generated with Cura_SteamEngine 4.10.0
M140 S60
M105
M190 S60
M104 S200
M105
M109 S200
M82 ;absolute extrusion mode
M201 X500.00 Y500.00 Z100.00 E5000.00 ;Setup machine max acceleration
M203 X500.00 Y500.00 Z10.00 E50.00 ;Setup machine max feedrate
M204 P500.00 R1000.00 T500.00 ;Setup Print/Retract/Travel acceleration
M205 X8.00 Y8.00 Z0.40 E5.00 ;Setup Jerk
M220 S100 ;Reset Feedrate
M221 S100 ;Reset Flowrate

G28 ;Home

G92 E0 ;Reset Extruder
G1 Z2.0 F3000 ;Move Z Axis up
G1 X10.1 Y20 Z0.28 F5000.0 ;Move to start position
G1 X10.1 Y200.0 Z0.28 F1500.0 E15 ;Draw the first line
G1 X10.4 Y200.0 Z0.28 F5000.0 ;Move to side a little
G1 X10.4 Y20 Z0.28 F1500.0 E30 ;Draw the second line
G92 E0 ;Reset Extruder
G1 Z2.0 F3000 ;Move Z Axis up

G92 E0
G92 E0
G1 F2700 E-5
;LAYER_COUNT:114
;LAYER:0
M107
;MESH:P4Test.stl
G0 F6000 X149.454 Y157.329 Z0.2
;TYPE:WALL-INNER
G1 F2700 E0
G1 F1200 X149.007 Y157.258 E0.01505
G1 X148.6 Y157.148 E0.02908
G1 X148.189 Y156.991 E0.04371
G1 X147.81 Y156.797 E0.05787
G1 X147.446 Y156.56 E0.07232
G1 X147.104 Y156.284 E0.08693
G1 X146.806 Y155.986 E0.10095
G1 X146.535 Y155.651 E0.11528
G1 X146.291 Y155.274 E0.13022
G1 X146.101 Y154.901 E0.14414
G1 X145.94 Y154.482 E0.15907
G1 X145.834 Y154.085 E0.17274
G1 X145.76 Y153.624 E0.18827
G1 X145.749 Y153.497 E0.19251
G1 X145.735 Y153.217 E0.20183
G1 X145.735 Y148.421 E0.36135
G1 X145.75 Y148.108 E0.37177
G1 X145.762 Y147.962 E0.37664
G1 X145.832 Y147.53 E0.3912
G1 X145.941 Y147.123 E0.40521
G1 X146.101 Y146.707 E0.42004
G1 X146.294 Y146.327 E0.43421
G1 X146.53 Y145.965 E0.44858
G1 X146.807 Y145.622 E0.46325
G1 X147.104 Y145.324 E0.47724
G1 X147.439 Y145.053 E0.49157
G1 X147.817 Y144.808 E0.50656
G1 X148.189 Y144.618 E0.52045
G1 X148.605 Y144.459 E0.53526
G1 X149.009 Y144.351 E0.54917
G1 X149.463 Y144.279 E0.56446
G1 X149.585 Y144.269 E0.56853
G1 X149.885 Y144.253 E0.57852
G1 X150.114 Y144.253 E0.58614
G1 X150.409 Y144.269 E0.59596
G1 X150.546 Y144.28 E0.60054
G1 X150.993 Y144.351 E0.61559
G1 X151.4 Y144.461 E0.62961
G1 X151.811 Y144.618 E0.64425
G1 X152.183 Y144.808 E0.65814
G1 X152.561 Y145.053 E0.67312
G1 X152.896 Y145.324 E0.68745
G1 X153.193 Y145.622 E0.70145
G1 X153.47 Y145.965 E0.71611
G1 X153.706 Y146.327 E0.73048
G1 X153.899 Y146.707 E0.74466
G1 X154.059 Y147.121 E0.75942
G1 X154.165 Y147.516 E0.77302
G1 X154.239 Y147.979 E0.78862
G1 X154.25 Y148.095 E0.79249
G1 X154.265 Y148.391 E0.80235
G1 X154.265 Y153.187 E0.96187
G1 X154.25 Y153.501 E0.97232
G1 X154.239 Y153.641 E0.97699
G1 X154.168 Y154.078 E0.99172
G1 X154.057 Y154.493 E1.00601
G1 X153.902 Y154.896 E1.02037
G1 X153.709 Y155.274 E1.03448
G1 X153.465 Y155.651 E1.04942
G1 X153.194 Y155.986 E1.06375
G1 X152.896 Y156.284 E1.07777
G1 X152.554 Y156.56 E1.09239
G1 X152.19 Y156.797 E1.10683
G1 X151.811 Y156.991 E1.12099
G1 X151.395 Y157.15 E1.13581
G1 X150.991 Y157.258 E1.14971
G1 X150.537 Y157.33 E1.165
G1 X150.423 Y157.339 E1.16881
G1 X150.097 Y157.355 E1.17966
G1 X149.903 Y157.355 E1.18612
G1 X149.578 Y157.339 E1.19694
G1 X149.454 Y157.329 E1.20108
G0 F6000 X149.41 Y157.727
;TYPE:WALL-OUTER
G1 F1200 X148.925 Y157.65 E1.21741
G1 X148.474 Y157.528 E1.23295
G1 X148.028 Y157.358 E1.24882
G1 X147.61 Y157.144 E1.26444
G1 X147.211 Y156.884 E1.28028
G1 X146.832 Y156.578 E1.29648
G1 X146.512 Y156.258 E1.31154
G1 X146.206 Y155.879 E1.32774
G1 X145.947 Y155.48 E1.34356
G1 X145.735 Y155.064 E1.35909
G1 X145.56 Y154.609 E1.3753
G1 X145.441 Y154.164 E1.39062
G1 X145.364 Y153.68 E1.40692
G1 X145.351 Y153.532 E1.41186
G1 X145.335 Y153.217 E1.42235
G1 X145.335 Y148.401 E1.58254
G1 X145.351 Y148.076 E1.59336
G1 X145.364 Y147.915 E1.59873
G1 X145.439 Y147.452 E1.61433
G1 X145.561 Y146.996 E1.63003
G1 X145.735 Y146.544 E1.64614
G1 X145.947 Y146.128 E1.66167
G1 X146.206 Y145.73 E1.67746
G1 X146.508 Y145.356 E1.69345
G1 X146.837 Y145.026 E1.70895
G1 X147.211 Y144.724 E1.72494
G1 X147.61 Y144.465 E1.74076
G1 X148.028 Y144.251 E1.75638
G1 X148.48 Y144.079 E1.77246
G1 X148.593 Y144.047 E1.77637
G1 X148.923 Y143.96 E1.78772
G1 X149.41 Y143.883 E1.80412
G1 X149.557 Y143.87 E1.80903
G1 X149.883 Y143.853 E1.81989
G1 X150.116 Y143.853 E1.82764
G1 X150.441 Y143.87 E1.83846
G1 X150.59 Y143.882 E1.84343
G1 X151.075 Y143.959 E1.85976
G1 X151.526 Y144.081 E1.8753
G1 X151.972 Y144.251 E1.89118
G1 X152.39 Y144.465 E1.9068
G1 X152.789 Y144.724 E1.92262
G1 X153.163 Y145.026 E1.93861
G1 X153.492 Y145.356 E1.95411
G1 X153.794 Y145.73 E1.97009
G1 X154.053 Y146.128 E1.98589
G1 X154.265 Y146.544 E2.00142
G1 X154.439 Y146.996 E2.01753
G1 X154.558 Y147.439 E2.03278
G1 X154.636 Y147.928 E2.04925
G1 X154.649 Y148.075 E2.05416
G1 X154.665 Y148.391 E2.06469
G1 X154.665 Y153.207 E2.22487
G1 X154.649 Y153.532 E2.23569
G1 X154.637 Y153.688 E2.24089
G1 X154.561 Y154.156 E2.25666
G1 X154.437 Y154.62 E2.27264
G1 X154.268 Y155.059 E2.28828
G1 X154.053 Y155.48 E2.30401
G1 X153.794 Y155.879 E2.31983
G1 X153.488 Y156.258 E2.33603
G1 X153.168 Y156.578 E2.35108
G1 X152.789 Y156.884 E2.36728
G1 X152.39 Y157.144 E2.38312
G1 X151.972 Y157.358 E2.39874
G1 X151.52 Y157.53 E2.41482
G1 X151.407 Y157.562 E2.41873
G1 X151.077 Y157.649 E2.43008
G1 X150.59 Y157.726 E2.44648
G1 X150.443 Y157.739 E2.45139
G1 X150.117 Y157.755 E2.46225
G1 X149.883 Y157.755 E2.47003
G1 X149.558 Y157.739 E2.48085
G1 X149.41 Y157.727 E2.48579
G0 F6000 X149.462 Y157.291
G0 X149.515 Y156.943
;TYPE:SKIN
G1 F1200 X149.078 Y156.874 E2.5005
G1 X148.73 Y156.78 E2.51249
G1 X148.341 Y156.631 E2.52635
G1 X148.008 Y156.46 E2.5388
G1 X147.677 Y156.245 E2.55193
G1 X147.354 Y155.984 E2.56574
G1 X147.101 Y155.731 E2.57764
G1 X146.851 Y155.422 E2.59086
G1 X146.628 Y155.078 E2.60449
G1 X146.459 Y154.747 E2.61685
G1 X146.312 Y154.364 E2.6305
G1 X146.215 Y154 E2.64303
G1 X146.147 Y153.571 E2.65748
G1 X146.139 Y153.476 E2.66065
G1 X146.125 Y153.207 E2.66961
G1 X146.125 Y148.44 E2.82816
G1 X146.141 Y148.1 E2.83948
G1 X146.149 Y148.01 E2.84248
G1 X146.214 Y147.614 E2.85583
G1 X146.314 Y147.238 E2.86877
G1 X146.459 Y146.861 E2.88221
G1 X146.629 Y146.528 E2.89464
G1 X146.845 Y146.196 E2.90781
G1 X147.099 Y145.882 E2.92125
G1 X147.371 Y145.61 E2.93404
G1 X147.668 Y145.369 E2.94676
G1 X148.01 Y145.148 E2.96031
G1 X148.343 Y144.977 E2.97276
G1 X148.728 Y144.83 E2.98646
G1 X149.086 Y144.734 E2.99879
G1 X149.524 Y144.665 E3.01354
G1 X149.579 Y144.66 E3.01538
G1 X149.906 Y144.643 E3.02627
G1 X150.093 Y144.643 E3.03249
G1 X150.485 Y144.666 E3.04555
G1 X150.922 Y144.735 E3.06026
G1 X151.269 Y144.829 E3.07222
G1 X151.657 Y144.977 E3.08603
G1 X151.99 Y145.148 E3.09848
G1 X152.332 Y145.369 E3.11202
G1 X152.629 Y145.61 E3.12475
G1 X152.901 Y145.882 E3.13754
G1 X153.155 Y146.196 E3.15097
G1 X153.371 Y146.528 E3.16415
G1 X153.541 Y146.861 E3.17658
G1 X153.686 Y147.237 E3.18998
G1 X153.784 Y147.601 E3.20252
G1 X153.852 Y148.028 E3.2169
G1 X153.86 Y148.115 E3.21981
G1 X153.875 Y148.411 E3.22967
G1 X153.875 Y153.168 E3.38789
G1 X153.859 Y153.52 E3.3996
G1 X153.853 Y153.596 E3.40214
G1 X153.789 Y153.984 E3.41522
G1 X153.685 Y154.375 E3.42868
G1 X153.545 Y154.738 E3.44162
G1 X153.372 Y155.078 E3.45431
G1 X153.149 Y155.422 E3.46794
G1 X152.899 Y155.731 E3.48116
G1 X152.646 Y155.984 E3.49306
G1 X152.323 Y156.245 E3.50687
G1 X151.992 Y156.46 E3.52
G1 X151.649 Y156.636 E3.53282
G1 X151.281 Y156.777 E3.54593
G1 X150.914 Y156.875 E3.55856
G1 X150.476 Y156.944 E3.57331
G1 X150.446 Y156.947 E3.57431
G1 X150.078 Y156.965 E3.58657
G1 X149.922 Y156.965 E3.59176
G1 X149.559 Y156.947 E3.60385
G1 X149.515 Y156.943 E3.60532
G0 F6000 X149.494 Y157.222
G0 X148.261 Y156.836
G0 X147.543 Y156.419
G0 X146.936 Y155.875
G0 X146.097 Y154.583
G0 X146.508 Y154.427
G1 F1200 X148.661 Y156.581 E3.70661
G0 F6000 X149.409 Y156.763
G1 F1200 X146.326 Y153.68 E3.85162
G0 F6000 X146.284 Y153.073
G1 F1200 X150.016 Y156.804 E4.02714
G0 F6000 X150.547 Y156.769
G1 F1200 X146.284 Y152.507 E4.22764
G0 F6000 X146.284 Y151.941
G1 F1200 X151.022 Y156.679 E4.4505
G0 F6000 X151.448 Y156.539
G1 F1200 X146.284 Y151.376 E4.69337
G0 F6000 X146.284 Y150.81
G1 F1200 X151.834 Y156.359 E4.95441
G0 F6000 X152.183 Y156.143
G1 F1200 X146.284 Y150.244 E5.23188
G0 F6000 X146.284 Y149.678
G1 F1200 X152.5 Y155.894 E5.52426
G0 F6000 X152.787 Y155.615
G1 F1200 X146.284 Y149.113 E5.83012
G0 F6000 X146.284 Y148.547
G1 F1200 X153.036 Y155.299 E6.14771
G0 F6000 X153.256 Y154.953
G1 F1200 X146.31 Y148.007 E6.47443
G0 F6000 X146.4 Y147.531
G1 F1200 X153.438 Y154.57 E6.8055
G0 F6000 X153.58 Y154.146
G1 F1200 X146.537 Y147.102 E7.1368
G0 F6000 X146.712 Y146.712
G1 F1200 X153.677 Y153.677 E7.46441
G0 F6000 X153.714 Y153.148
G1 F1200 X146.926 Y146.361 E7.78368
G0 F6000 X147.172 Y146.041
G1 F1200 X153.714 Y152.583 E8.09139
G0 F6000 X153.714 Y152.017
G1 F1200 X147.45 Y145.753 E8.38603
G0 F6000 X147.762 Y145.499
G1 F1200 X153.714 Y151.451 E8.666
G0 F6000 X153.714 Y150.885
G1 F1200 X148.106 Y145.277 E8.92978
G0 F6000 X148.487 Y145.093
G1 F1200 X153.714 Y150.32 E9.17564
G0 F6000 X153.714 Y149.754
G1 F1200 X148.907 Y144.947 E9.40175
G0 F6000 X149.376 Y144.85
G1 F1200 X153.714 Y149.188 E9.60579
G0 F6000 X153.714 Y148.623
G1 F1200 X149.896 Y144.804 E9.7854
G0 F6000 X150.485 Y144.828
G1 F1200 X153.691 Y148.034 E9.9362
G0 F6000 X153.541 Y147.319
G1 F1200 X151.198 Y144.975 E10.04644
G0 F6000 X151.313 Y144.552
G0 X152.771 Y145.366
G0 X152.495 Y145.707
G1 F1200 X152.803 Y146.015 E10.06092
G0 F6000 X153.076 Y145.796
;MESH:NONMESH
G0 F300 X153.076 Y145.796 Z0.4
G0 F6000 X153.146 Y145.74
G0 X153.741 Y146.772
G0 X153.999 Y147.556
G0 X154.094 Y148.401
G0 X154.07 Y153.618
G0 X153.895 Y154.44
G0 X153.561 Y155.189
G0 X153.064 Y155.875
G0 X152.457 Y156.419
G0 X150.567 Y157.426
G0 X150.578 Y157.502
;TIME_ELAPSED:22.530878
;LAYER:1
M106 S85
;TYPE:WALL-INNER
;MESH:P4Test.stl
G1 F1350 X150.098 Y157.525 E10.07691
G1 X149.903 Y157.525 E10.08339
G1 X149.412 Y157.501 E10.09974
G1 X148.972 Y157.43 E10.11457
G1 X148.543 Y157.315 E10.12934
G1 X148.111 Y157.149 E10.14473
G1 X147.721 Y156.951 E10.15928
G1 X147.344 Y156.704 E10.17427
G1 X146.986 Y156.414 E10.18959
G1 X146.673 Y156.101 E10.20432
G1 X146.389 Y155.749 E10.21936
G1 X146.138 Y155.363 E10.23467
G1 X145.941 Y154.976 E10.24912
G1 X145.772 Y154.534 E10.26485
G1 X145.66 Y154.117 E10.27922
G1 X145.589 Y153.666 E10.2944
G1 X145.564 Y153.161 E10.31122
G1 X145.565 Y148.401 E10.46954
G1 X145.589 Y147.937 E10.48499
G1 X145.66 Y147.493 E10.49994
G1 X145.774 Y147.065 E10.51468
G1 X145.94 Y146.634 E10.53004
G1 X146.142 Y146.238 E10.54482
G1 X146.394 Y145.851 E10.56018
G1 X146.67 Y145.511 E10.57475
G1 X146.987 Y145.193 E10.58968
G1 X147.346 Y144.904 E10.60501
G1 X147.722 Y144.659 E10.61994
G1 X148.121 Y144.456 E10.63483
G1 X148.547 Y144.293 E10.65
G1 X148.97 Y144.179 E10.66457
G1 X149.431 Y144.106 E10.68009
G1 X149.886 Y144.082 E10.69525
G1 X150.115 Y144.083 E10.70286
G1 X150.579 Y144.107 E10.71832
G1 X151.028 Y144.179 E10.73344
G1 X151.457 Y144.294 E10.74821
G1 X151.887 Y144.459 E10.76353
G1 X152.279 Y144.658 E10.77815
G1 X152.656 Y144.905 E10.79315
G1 X153.015 Y145.195 E10.80849
G1 X153.326 Y145.507 E10.82315
G1 X153.611 Y145.86 E10.83824
G1 X153.86 Y146.243 E10.85343
G1 X154.061 Y146.638 E10.86817
G1 X154.227 Y147.069 E10.88353
G1 X154.339 Y147.488 E10.89796
G1 X154.411 Y147.94 E10.91318
G1 X154.436 Y148.447 E10.93006
G1 X154.435 Y153.187 E11.08772
G1 X154.411 Y153.673 E11.1039
G1 X154.339 Y154.124 E11.11909
G1 X154.226 Y154.543 E11.13353
G1 X154.06 Y154.975 E11.14892
G1 X153.858 Y155.371 E11.1637
G1 X153.611 Y155.75 E11.17875
G1 X153.324 Y156.104 E11.19391
G1 X153.012 Y156.416 E11.20858
G1 X152.655 Y156.704 E11.22384
G1 X152.278 Y156.95 E11.23881
G1 X151.879 Y157.153 E11.2537
G1 X151.453 Y157.316 E11.26887
G1 X151.03 Y157.43 E11.28344
G1 X150.578 Y157.502 E11.29867
G0 F7500 X150.615 Y157.901
;TYPE:WALL-OUTER
G1 F1350 X150.117 Y157.925 E11.31525
G1 X149.883 Y157.925 E11.32303
G1 X149.373 Y157.9 E11.34002
G1 X148.895 Y157.823 E11.35612
G1 X148.42 Y157.696 E11.37247
G1 X147.949 Y157.515 E11.38925
G1 X147.513 Y157.293 E11.40553
G1 X147.107 Y157.027 E11.42167
G1 X146.718 Y156.712 E11.43832
G1 X146.375 Y156.369 E11.45445
G1 X146.066 Y155.987 E11.47079
G1 X145.792 Y155.564 E11.48756
G1 X145.573 Y155.134 E11.50361
G1 X145.393 Y154.664 E11.52035
G1 X145.268 Y154.199 E11.53636
G1 X145.19 Y153.701 E11.55313
G1 X145.164 Y153.181 E11.57044
G1 X145.165 Y148.401 E11.72943
G1 X145.191 Y147.891 E11.74641
G1 X145.267 Y147.414 E11.76248
G1 X145.394 Y146.938 E11.77886
G1 X145.574 Y146.471 E11.79551
G1 X145.795 Y146.039 E11.81165
G1 X146.069 Y145.617 E11.82838
G1 X146.373 Y145.243 E11.84441
G1 X146.725 Y144.89 E11.86099
G1 X147.105 Y144.584 E11.87722
G1 X147.523 Y144.312 E11.89381
G1 X147.955 Y144.092 E11.90993
G1 X148.424 Y143.912 E11.92664
G1 X148.891 Y143.787 E11.94272
G1 X149.385 Y143.708 E11.95936
G1 X149.884 Y143.682 E11.97598
G1 X150.117 Y143.683 E11.98373
G1 X150.627 Y143.709 E12.00071
G1 X151.105 Y143.786 E12.01682
G1 X151.58 Y143.913 E12.03317
G1 X152.049 Y144.093 E12.04988
G1 X152.487 Y144.316 E12.06623
G1 X152.887 Y144.578 E12.08213
G1 X153.282 Y144.897 E12.09902
G1 X153.629 Y145.245 E12.11536
G1 X153.934 Y145.622 E12.13149
G1 X154.206 Y146.042 E12.14813
G1 X154.427 Y146.475 E12.1643
G1 X154.607 Y146.942 E12.18095
G1 X154.732 Y147.41 E12.19706
G1 X154.81 Y147.903 E12.21366
G1 X154.836 Y148.427 E12.23111
G1 X154.835 Y153.207 E12.3901
G1 X154.81 Y153.71 E12.40685
G1 X154.731 Y154.203 E12.42345
G1 X154.606 Y154.67 E12.43953
G1 X154.426 Y155.138 E12.45621
G1 X154.205 Y155.57 E12.47235
G1 X153.932 Y155.99 E12.48901
G1 X153.622 Y156.372 E12.50537
G1 X153.284 Y156.71 E12.52127
G1 X152.89 Y157.028 E12.53811
G1 X152.477 Y157.297 E12.5545
G1 X152.045 Y157.517 E12.57063
G1 X151.576 Y157.697 E12.58734
G1 X151.109 Y157.822 E12.60342
G1 X150.615 Y157.901 E12.62006
G0 F7500 X150.57 Y157.464
G0 X150.535 Y157.114
;TYPE:SKIN
G1 F1350 X150.079 Y157.135 E12.63524
G1 X149.922 Y157.135 E12.64046
G1 X149.448 Y157.112 E12.65624
G1 X149.057 Y157.049 E12.66942
G1 X148.662 Y156.943 E12.68302
G1 X148.265 Y156.791 E12.69716
G1 X147.92 Y156.615 E12.71004
G1 X147.575 Y156.389 E12.72376
G1 X147.237 Y156.115 E12.73823
G1 X146.973 Y155.851 E12.75065
G1 X146.703 Y155.516 E12.76496
G1 X146.473 Y155.162 E12.779
G1 X146.301 Y154.826 E12.79155
G1 X146.14 Y154.403 E12.80661
G1 X146.045 Y154.049 E12.8188
G1 X145.977 Y153.62 E12.83324
G1 X145.954 Y153.161 E12.84853
G1 X145.955 Y148.421 E13.00618
G1 X145.978 Y147.971 E13.02117
G1 X146.042 Y147.574 E13.03454
G1 X146.145 Y147.186 E13.0479
G1 X146.298 Y146.789 E13.06205
G1 X146.477 Y146.439 E13.07512
G1 X146.71 Y146.081 E13.08933
G1 X146.962 Y145.771 E13.10262
G1 X147.251 Y145.481 E13.11623
G1 X147.572 Y145.222 E13.12995
G1 X147.923 Y144.994 E13.14387
G1 X148.269 Y144.817 E13.1568
G1 X148.678 Y144.661 E13.17136
G1 X149.037 Y144.564 E13.18373
G1 X149.474 Y144.494 E13.19845
G1 X149.905 Y144.472 E13.2128
G1 X150.095 Y144.473 E13.21912
G1 X150.543 Y144.496 E13.23404
G1 X150.943 Y144.56 E13.24751
G1 X151.339 Y144.666 E13.26115
G1 X151.733 Y144.817 E13.27518
G1 X152.08 Y144.994 E13.28814
G1 X152.422 Y145.218 E13.30174
G1 X152.755 Y145.487 E13.31597
G1 X153.033 Y145.766 E13.32907
G1 X153.294 Y146.088 E13.34286
G1 X153.525 Y146.444 E13.35697
G1 X153.703 Y146.792 E13.36998
G1 X153.855 Y147.187 E13.38405
G1 X153.956 Y147.565 E13.39707
G1 X154.022 Y147.98 E13.41104
G1 X154.046 Y148.447 E13.4266
G1 X154.045 Y153.168 E13.58362
G1 X154.022 Y153.632 E13.59907
G1 X153.956 Y154.048 E13.61308
G1 X153.857 Y154.416 E13.62575
G1 X153.702 Y154.821 E13.64018
G1 X153.523 Y155.17 E13.65322
G1 X153.295 Y155.52 E13.66711
G1 X153.025 Y155.853 E13.68137
G1 X152.763 Y156.115 E13.6937
G1 X152.418 Y156.393 E13.70843
G1 X152.084 Y156.612 E13.72172
G1 X151.731 Y156.792 E13.7349
G1 X151.321 Y156.948 E13.74949
G1 X150.963 Y157.045 E13.76182
G1 X150.535 Y157.114 E13.77624
G0 F7500 X150.547 Y157.393
G0 X151.811 Y156.997
G0 X152.558 Y156.563
G0 X153.194 Y155.993
G0 X153.974 Y154.891
G0 X153.563 Y154.734
G1 F1350 X151.643 Y156.654 E13.86655
